themes/reformation/assets/image/github.svg

<svg width="24" height="24" viewBox="0 0 98 96" fill="none" xmlns="http://www.w3.org/2000/svg">
	<g clip-path="url(#clip0_730_27126)">
		<path d="M41.4395 69.3848C28.8066 67.8535 19.9062 58.7617 19.9062 46.9902C19.9062 42.2051 21.6289 37.0371 24.5 33.5918C23.2559 30.4336 23.4473 23.7344 24.8828 20.959C28.7109 20.4805 33.8789 22.4902 36.9414 25.2656C40.5781 24.1172 44.4062 23.543 49.0957 23.543C53.7852 23.543 57.6133 24.1172 61.0586 25.1699C64.0254 22.4902 69.2891 20.4805 73.1172 20.959C74.457 23.543 74.6484 30.2422 73.4043 33.4961C76.4668 37.1328 78.0937 42.0137 78.0937 46.9902C78.0937 58.7617 69.1934 67.6621 56.3691 69.2891C59.623 71.3945 61.8242 75.9883 61.8242 81.252L61.8242 91.2051C61.8242 94.0762 64.2168 95.7031 67.0879 94.5547C84.4102 87.9512 98 70.6289 98 49.1914C98 22.1074 75.9883 6.69539e-07 48.9043 4.309e-07C21.8203 1.92261e-07 -1.9479e-07 22.1074 -4.3343e-07 49.1914C-6.20631e-07 70.4375 13.4941 88.0469 31.6777 94.6504C34.2617 95.6074 36.75 93.8848 36.75 91.3008L36.75 83.6445C35.4102 84.2188 33.6875 84.6016 32.1562 84.6016C25.8398 84.6016 22.1074 81.1563 19.4277 74.7441C18.375 72.1602 17.2266 70.6289 15.0254 70.3418C13.877 70.2461 13.4941 69.7676 13.4941 69.1934C13.4941 68.0449 15.4082 67.1836 17.3223 67.1836C20.0977 67.1836 22.4902 68.9063 24.9785 72.4473C26.8926 75.2227 28.9023 76.4668 31.2949 76.4668C33.6875 76.4668 35.2187 75.6055 37.4199 73.4043C39.0469 71.7773 40.291 70.3418 41.4395 69.3848Z" fill="currentColor"/>
	</g>
	<defs>
		<clipPath id="clip0_730_27126">
			<rect width="98" height="96" fill="white"/>
		</clipPath>
	</defs>
</svg>

<svg xmlns="http://www.w3.org/2000/svg" fill="none" height="24" viewBox="0 0 98 96" width="24"><g clip-path="url(#clip0_730_27126)"><path d="M41.439,69.385C28.807,67.854 19.906,58.762 19.906,46.99c0-4.785 1.723-9.953 4.594-13.398 -1.244-3.158-1.053-9.857 .383-12.633 3.828-.479 8.996,1.531 12.059,4.307 3.637-1.148 7.465-1.723 12.154-1.723s8.518,.574 11.963,1.627c2.967-2.68 8.23-4.689 12.059-4.211 1.34,2.584 1.531,9.283 .287,12.537 3.063,3.637 4.689,8.518 4.689,13.494 0,11.771-8.9,20.672-21.725,22.299 3.254,2.105 5.455,6.699 5.455,11.963v9.953c0,2.871 2.393,4.498 5.264,3.35C84.41,87.951 98,70.629 98,49.191 98,22.107 75.988,0 48.904,0 21.82,0 0,22.107 0,49.191 -0,70.438 13.494,88.047 31.678,94.65c2.584,.957 5.072-.766 5.072-3.35v-7.656c-1.34,.574-3.063,.957-4.594,.957 -6.316,0-10.049-3.445-12.729-9.857 -1.053-2.584-2.201-4.115-4.402-4.402 -1.148-.096-1.531-.574-1.531-1.148 0-1.148 1.914-2.01 3.828-2.01 2.775,0 5.168,1.723 7.656,5.264 1.914,2.775 3.924,4.019 6.316,4.019 2.393,0 3.924-.861 6.125-3.063 1.627-1.627 2.871-3.063 4.02-4.019" fill="currentColor"/></g><defs><clipPath id="clip0_730_27126"><rect fill="white" height="96" width="98"/></clipPath></defs></svg>
